/* XPM */
static char * east_xpm[] = {
"128 128 256 2",
"  	c #0F0F0F",
". 	c #1F1F1F",
"+ 	c #2F2F2F",
"@ 	c #3F3F3F",
"# 	c #4B4B4B",
"$ 	c #5B5B5B",
"% 	c #6B6B6B",
"& 	c #7B7B7B",
"* 	c #8B8B8B",
"= 	c #9B9B9B",
"- 	c #ABABAB",
"; 	c #BBBBBB",
"> 	c #13131B",
", 	c #272733",
"' 	c #371F23",
") 	c #231313",
"! 	c #7B6353",
"~ 	c #5F4B3B",
"{ 	c #433327",
"] 	c #372B1F",
"^ 	c #271F17",
"/ 	c #1B130F",
"( 	c #677B6F",
"_ 	c #5F7367",
": 	c #576B5F",
"< 	c #4F6357",
"[ 	c #475B4F",
"} 	c #3F5347",
"| 	c #2F4337",
"1 	c #2B3B2F",
"2 	c #233327",
"3 	c #1F2B1F",
"4 	c #172317",
"5 	c #0F1B13",
"6 	c #000000",
"7 	c #000000",
"8 	c #000000",
"9 	c #000000",
"0 	c #000000",
"a 	c #000000",
"b 	c #000000",
"c 	c #000000",
"d 	c #000000",
"e 	c #000000",
"f 	c #000000",
"g 	c #000000",
"h 	c #000000",
"i 	c #000000",
"j 	c #000000",
"k 	c #000000",
"l 	c #000000",
"m 	c #000000",
"n 	c #000000",
"o 	c #000000",
"p 	c #000000",
"q 	c #000000",
"r 	c #000000",
"s 	c #000000",
"t 	c #000000",
"u 	c #000000",
"v 	c #000000",
"w 	c #000000",
"x 	c #000000",
"y 	c #000000",
"z 	c #000000",
"A 	c #000000",
"B 	c #000000",
"C 	c #000000",
"D 	c #000000",
"E 	c #000000",
"F 	c #000000",
"G 	c #000000",
"H 	c #000000",
"I 	c #000000",
"J 	c #000000",
"K 	c #000000",
"L 	c #000000",
"M 	c #000000",
"N 	c #000000",
"O 	c #000000",
"P 	c #000000",
"Q 	c #000000",
"R 	c #000000",
"S 	c #000000",
"T 	c #000000",
"U 	c #000000",
"V 	c #000000",
"W 	c #000000",
"X 	c #000000",
"Y 	c #000000",
"Z 	c #000000",
"` 	c #000000",
" .	c #000000",
"..	c #000000",
"+.	c #000000",
"@.	c #000000",
"#.	c #000000",
"$.	c #000000",
"%.	c #000000",
"&.	c #000000",
"*.	c #000000",
"=.	c #000000",
"-.	c #000000",
";.	c #000000",
">.	c #000000",
",.	c #000000",
"'.	c #000000",
").	c #000000",
"!.	c #000000",
"~.	c #000000",
"{.	c #000000",
"].	c #000000",
"^.	c #000000",
"/.	c #000000",
"(.	c #000000",
"_.	c #000000",
":.	c #000000",
"<.	c #000000",
"[.	c #000000",
"}.	c #000000",
"|.	c #000000",
"1.	c #000000",
"2.	c #000000",
"3.	c #000000",
"4.	c #000000",
"5.	c #000000",
"6.	c #000000",
"7.	c #000000",
"8.	c #000000",
"9.	c #000000",
"0.	c #000000",
"a.	c #000000",
"b.	c #000000",
"c.	c #000000",
"d.	c #000000",
"e.	c #000000",
"f.	c #000000",
"g.	c #000000",
"h.	c #000000",
"i.	c #000000",
"j.	c #000000",
"k.	c #000000",
"l.	c #000000",
"m.	c #000000",
"n.	c #000000",
"o.	c #000000",
"p.	c #000000",
"q.	c #000000",
"r.	c #000000",
"s.	c #000000",
"t.	c #000000",
"u.	c #000000",
"v.	c #000000",
"w.	c #000000",
"x.	c #000000",
"y.	c #000000",
"z.	c #000000",
"A.	c #000000",
"B.	c #000000",
"C.	c #000000",
"D.	c #000000",
"E.	c #000000",
"F.	c #000000",
"G.	c #000000",
"H.	c #000000",
"I.	c #000000",
"J.	c #000000",
"K.	c #000000",
"L.	c #000000",
"M.	c #000000",
"N.	c #000000",
"O.	c #000000",
"P.	c #000000",
"Q.	c #000000",
"R.	c #000000",
"S.	c #000000",
"T.	c #000000",
"U.	c #000000",
"V.	c #000000",
"W.	c #000000",
"X.	c #000000",
"Y.	c #000000",
"Z.	c #000000",
"`.	c #000000",
" +	c #000000",
".+	c #000000",
"++	c #000000",
"@+	c #000000",
"#+	c #000000",
"$+	c #000000",
"%+	c #000000",
"&+	c #000000",
"*+	c #000000",
"=+	c #000000",
"-+	c #000000",
";+	c #000000",
">+	c #000000",
",+	c #000000",
"'+	c #000000",
")+	c #000000",
"!+	c #000000",
"~+	c #000000",
"{+	c #000000",
"]+	c #000000",
"^+	c #000000",
"/+	c #000000",
"(+	c #000000",
"_+	c #000000",
":+	c #000000",
"<+	c #000000",
"[+	c #000000",
"}+	c #000000",
"|+	c #000000",
"1+	c #000000",
"2+	c #000000",
"3+	c #000000",
"4+	c #000000",
"5+	c #000000",
"6+	c #000000",
"7+	c #000000",
"8+	c #000000",
"9+	c #000000",
"0+	c #000000",
"a+	c #000000",
"b+	c #000000",
"c+	c #000000",
"d+	c #000000",
"e+	c #000000",
"f+	c #000000",
"g+	c #000000",
"h+	c #000000",
"i+	c #000000",
"j+	c #000000",
"k+	c #000000",
"l+	c #000000",
"m+	c #000000",
"n+	c #000000",
"o+	c #000000",
"p+	c #000000",
"q+	c #000000",
"r+	c #000000",
"s+	c #000000",
"t+	c #000000",
"u+	c #000000",
"v+	c #000000",
"w+	c #000000",
"x+	c #000000",
"y+	c #000000",
"z+	c #000000",
"A+	c #000000",
"B+	c #000000",
"C+	c #000000",
"D+	c #000000",
"E+	c #000000",
"F+	c #000000",
"G+	c #000000",
"+ # # # # @ # # # # # # $ $ # $ # # $ $ # # @ @ $ $ @ @ # $ $ @ # @ # # # # $ @ # # # @ # @ @ @ # # # # @ @ @ @ @ @ # @ + . + , + # # # $ $ $ # # # @ @ $ $ # $ # # # @ # # @ # # # # # # # # [ $ [ # @ $ # # # $ # # $ # # $ # @ @ # # @ @ @ # $ # @ @ + + + + ",
"# % = * * ( & & % % & % % % % % $ % $ % % & % % % % % $ % & & % $ $ $ % $ % % % % $ $ $ $ $ $ # $ % $ $ $ # # $ $ $ @ # + . > . @ $ * * = * = * * * & * * * & * % & & ( * & & * & * * % % % & % & & & & % % % % & % % & % & % % % $ % % % % $ % & % % $ [ + , . ",
"# * - & * & = = * * * = * * * = = * & & & % & * & & & % % & % * & % % % % % % & % % % $ $ $ $ $ $ % % % $ # # $ $ # # # $ $ . . $ & - % % % % & % % % % % & * * & & & * = * * * * * * * - = = = = = - - = * & & & & * * & & & & & % & & % % & & & % $ % $ $ 2 . ",
"$ & % $ # # # # # @ @ # # $ $ % % % % & & * * = = = = * & & & * & % & & % % & & % % % % ( % % $ % & & % % $ # # $ $ % $ $ @ + / # * * # # $ # # # # # $ # # # $ $ # @ # # $ $ # # # @ # $ $ # $ $ $ $ & = - = = = * = = * * & * & & & & % % & & % $ % $ % @ + . ",
"# & % # @ @ # @ @ @ # # @ # # # [ $ $ # $ $ # $ % ( % & & % % % % $ % $ $ $ % % % $ # $ $ $ $ # $ $ # $ $ $ # $ # # # # # @ @ . # * % # # $ # @ # # # # @ # # @ # @ @ @ # # @ @ @ @ # @ # # # # # # # $ $ % $ % % % % & % $ $ % $ $ % $ # # $ # # @ # # # @ 3 . ",
"@ & % @ # # # @ @ # @ @ @ # @ @ # # $ $ # $ # # # # $ # # $ % % $ # % # $ $ $ $ % $ $ # $ # # # $ @ @ # # # $ $ $ @ # $ $ @ @ . # * % # # @ # $ # @ $ $ # # # @ @ # # # $ # @ @ # # @ @ # # @ # # $ # $ # $ $ $ $ $ # % $ $ $ # # # $ # # @ @ # # # @ # # + + . ",
"# & $ @ # # # # # # # @ @ @ # # $ # # # # # # # @ $ $ $ $ $ # : $ $ $ $ $ # # $ $ $ $ $ # # # # @ $ # # @ # $ # # # # $ $ # + . # = % # # @ # # $ $ $ $ # # # [ # @ # # # # # # # @ # # # # # @ @ $ $ # # # @ $ $ $ % & % $ $ $ # @ # # # # @ # # # @ @ $ @ @ . ",
"[ & % @ @ # # @ # # # # # @ # $ $ # @ @ @ # # # # # $ $ # $ $ # $ % % $ # # # $ $ # $ $ $ $ $ $ # # [ # # @ $ # # # @ @ # @ @ . # * % # $ # # # # $ # # # # $ # # $ $ # @ # # # # $ $ # # @ @ $ @ # $ # # # @ @ # $ % % & $ # $ # # $ $ @ # @ # # # # @ $ @ + . ",
"# * % # @ # # # # # # $ # @ # # # # # # # # # # $ @ # $ $ % # # # # $ % % $ $ $ $ % $ $ $ $ $ $ $ $ $ # # @ # # @ # @ @ # # @ . # * % # # $ # # $ [ $ $ [ $ @ @ @ @ # @ @ @ $ # # # # [ # @ # # @ # $ # $ $ # # @ # @ $ % _ # $ # @ # # # # # # # # # @ # @ @ . ",
"@ * % # @ # # # $ # $ [ # # # # # # # # # # @ $ $ # # # # $ # [ # # $ $ % & % % $ % % % $ $ % $ $ $ $ # @ # # # @ @ @ # # @ + . $ = # # # # $ # @ @ @ @ @ @ # $ % # @ @ $ @ # # # # # $ # # $ # @ @ # # # $ # $ # # # # $ % $ $ $ @ # @ # # # # # # # # # + + . ",
"# & % # # # @ @ # # # # # $ # @ @ @ # $ # # $ $ $ $ # # $ # $ $ # # $ # % % & & % % % % $ % % $ < $ $ $ # @ # $ $ # # # # @ # 3 $ = # + @ @ @ @ @ @ # % $ % $ $ $ % # # $ # # $ # $ $ $ # # $ # # # $ @ # $ # # $ # # # $ % $ $ $ # $ $ # # # # $ @ # @ # @ @ . ",
"@ % % # # # # @ # # # # $ $ # # @ @ [ $ # # $ # $ $ [ @ % # # $ $ $ # # $ $ _ $ % & % $ $ $ $ $ $ # $ $ % # # ( $ % $ # # # @ + $ = $ # # # # $ $ $ $ % $ $ $ $ $ # % # # $ # # $ $ $ $ # % % $ $ $ $ # $ # $ $ # # # # % $ $ $ $ $ [ $ % $ # # # [ $ # $ @ + . ",
"@ & % # # # # @ @ # # # $ < # # # # # @ # % [ # # $ # $ # $ # $ $ $ $ # # # # % _ $ % $ $ $ $ $ $ $ $ # $ $ # $ $ # $ $ % $ # + $ * $ $ # # # # $ # $ # [ $ # $ < $ $ % # $ $ # $ $ $ # $ % # # # # $ # # # $ $ $ $ $ $ $ % # % $ $ $ $ # $ $ $ # # # # $ # + . ",
"# & % # @ # # # @ @ $ # # # $ # @ @ @ # # # # # # # $ % $ $ # $ $ $ # $ $ $ $ $ % $ % & % % $ % % % $ $ : $ $ $ # < $ $ % # + . $ * % # # @ # # $ $ # @ @ $ # $ # # $ % $ # $ $ $ $ $ $ $ $ $ # # # $ # # # # $ $ # $ # $ % $ % $ $ % % $ % % $ $ # # # $ # @ . ",
"# * % # @ @ # @ @ # $ # $ # # $ # # # [ # # # # # # $ $ $ $ $ $ $ : $ $ % $ % $ $ % & % * % % ( % % % % $ : $ $ $ # $ # % # @ . # * & $ # # # @ # # # [ # # # # # # $ $ % # # $ $ $ $ $ $ $ $ $ $ $ $ $ $ $ $ $ $ $ $ $ $ $ $ % % % $ _ % % % $ $ $ @ # % # 1 . ",
"# = % # # @ # $ $ # # # @ # $ $ $ $ # # # $ # # # # $ # $ $ $ # # $ [ % % $ $ % $ % & % $ & % & % % % % % $ $ # # # # $ $ # + . $ & = $ $ # # @ @ $ # # # # @ # # $ $ # $ % # $ $ $ # $ $ $ $ $ # # $ $ # $ $ # $ # $ [ $ % $ $ % $ % % $ $ $ $ $ $ # @ $ # + . ",
"$ = % # # # # # @ # $ # : $ # # # $ # # $ # # # $ # # $ $ $ $ $ $ $ $ % % _ $ & % $ % % % ( & & & % % % % $ % $ $ $ $ $ % @ + . $ % - $ # $ $ # # @ @ # # # # # @ $ $ # # % % # $ $ # $ $ # $ $ $ $ $ $ $ # % $ $ $ $ $ & % % % $ $ $ $ % # $ $ # $ $ $ $ @ + . ",
"$ = % # # # [ # # $ $ @ $ [ # # $ # # $ $ $ $ # # @ # $ # # $ $ $ $ $ $ % % $ % ( % & % & & & * * & & & & $ % ( % & % % % $ @ , # % = % $ $ $ $ # @ @ @ # $ [ # # # $ $ # $ % $ $ $ $ $ $ # $ $ $ % $ $ $ $ % % % $ $ $ % $ % ( % $ $ $ $ $ $ $ # # $ # % $ @ . ",
"$ & % @ @ # $ # # # @ @ $ # @ $ # $ # # # # # [ $ # [ $ $ # # # $ $ % % % % % % % % & % & & * & & % % & & % $ $ % # $ $ & $ { . # % & & $ % $ $ # # # # $ # # $ # @ $ $ $ $ # % $ # $ : $ # $ % $ $ $ $ % % $ $ % % % ! & % % % % % % $ $ $ $ $ % $ # $ % @ @ , ",
"$ = & $ $ # # # @ @ @ # # @ # $ [ # # $ # # $ $ $ $ # # # $ $ $ # $ ! % $ % & % $ $ % & & * % & & * & % % * : $ % # @ @ % @ + . # $ & = $ # @ @ # # $ $ % % $ $ $ $ # $ $ $ # $ % $ # $ % $ $ $ $ $ $ $ $ # % $ % $ % % & & % $ $ $ $ $ $ $ $ $ % % % % % @ + . ",
"$ * & $ $ # # # # @ | @ # @ # # $ # # $ @ # # # $ # $ $ $ $ $ $ $ $ $ $ $ % % % % & * % $ & ! $ % % % $ % _ % % $ % $ $ % # + . # % $ & % $ # $ $ # # $ $ _ $ [ $ $ $ $ $ $ $ : ! $ # @ $ $ $ $ $ $ $ % % $ $ % % % % % & & % _ $ $ $ $ # # # # $ # # # $ @ @ + ",
"# & * % # # # # # $ # $ # @ # # $ $ # # $ $ $ $ $ # [ $ $ $ $ $ $ $ $ % % % & & % ( & & $ $ $ $ $ $ $ & % $ $ @ @ # % $ % $ @ . [ % $ % % $ $ $ $ % % $ % % % % % % % % _ % % $ [ % % # [ # $ $ $ $ $ $ % & & & * & & % % & % % % $ $ % # @ # # # # # # $ # @ . ",
"# % * $ # # # # $ # $ % $ # # @ # # # # @ # # $ $ $ $ % $ $ $ % $ % % % % & % % # $ : $ $ # $ $ $ # $ & $ $ # $ @ @ # $ % # @ + $ % % % $ $ # # # # $ $ $ $ % % $ $ $ $ % $ $ $ % & & * * & % $ % % % $ % % % % $ $ % $ $ % $ $ $ % ! $ $ # # @ @ # $ # # @ + . ",
"# % = $ # # $ _ $ @ $ $ # $ $ $ @ # $ # # # # @ # $ $ # % $ % & % & % % $ $ $ $ # # $ $ $ # $ # # % $ # # # # # $ @ @ # $ @ @ . # % & & $ # # # @ @ # # # # # $ # # # # # @ # @ $ # $ # [ % & % $ $ $ $ # # # $ # $ # $ $ % % # @ @ [ $ # # # # # @ # # $ @ + . ",
"$ % * & # # # $ $ # $ $ < # $ % $ # $ $ $ $ $ % % % $ $ $ $ $ # $ $ # $ $ # # $ $ $ # # # $ # @ # $ $ $ $ $ # @ # # @ @ $ @ @ ] @ $ % & $ $ # # @ # # # @ @ # # # # $ # # # @ $ @ @ # # # $ $ $ $ $ # # # # $ $ $ $ $ # $ # $ @ @ # @ @ # # $ # @ # # @ # { @ + ",
"# % * & # # $ @ @ $ # # # $ $ $ $ $ $ $ % % % $ % # _ % $ $ $ $ $ $ # # $ % $ # # # # @ @ @ # # # @ $ $ @ @ # # # $ @ @ # + + . # % & % % # # @ @ @ # @ # @ # @ # # @ # $ @ # # # # @ # # # # $ $ $ $ $ # # % $ # # $ # # + # # # $ # @ # # $ # # # @ @ # + + . ",
"# % * * $ $ # # $ $ # # $ % % % $ $ $ # $ $ # $ $ $ $ $ $ # # # # $ $ # @ @ # # # # # # # $ # @ @ @ # # @ # # $ # $ # @ @ + 3 ) @ $ % $ # @ # # @ @ @ @ @ @ @ # @ # } @ # [ $ # # # # # # # # # # $ $ $ # @ # $ # # # # @ # # $ # # # @ @ @ @ # @ # $ $ # # + . ",
"@ % & - $ # $ & % $ $ % $ $ $ $ $ % $ # # # # $ $ # $ $ $ $ # # # # # [ @ # @ @ # # $ $ $ $ $ # + | @ @ @ @ @ # # # # # @ @ +   @ $ # # # # # # @ @ @ @ @ @ @ @ # @ @ @ # # # # # [ # # # [ @ @ # @ # # # # # # @ @ # [ $ @ # # # # # # @ + @ @ + @ @ # # @ + > ",
"+ # % % & & & & % % % $ $ _ $ $ & _ $ # $ % % % $ # % _ $ $ $ $ # [ # # : # # # # $ $ # # $ $ $ $ @ @ @ # # # @ @ @ # # @ + +   + @ # % # # # $ @ + # @ @ @ @ @ # # # @ # # $ # # $ # # # # # # $ # $ # # # # # # # # [ # @ # # # # @ # $ # # # @ @ @ @ # + .   ",
"+ @ # [ # $ # 1 @ # # @ # # # @ @ # $ @ @ # $ # @ @ @ @ @ # # @ + # @ @ # @ @ @ @ @ @ @ # @ + @ # # @ + @ @ @ @ @ + @ @ @ @ .   . + # @ @ @ @ @ @ + @ + + + @ 1 @ + @ @ + @ + @ @ @ @ + @ | @ @ @ # @ @ @ @ + @ + @ @ @ @ | + @ @ @ @ @ @ @ @ # @ @ @ @ # # .   ",
"+ @ 3 . + + # + @ + + @ + + + @ @ @ @ + + + | @ @ + @ + + + { + + + @ + @ @ @ + + + + + + + + 3 @ @ + + + + + @ + + + 2 . > / . . + . + 3 + + + + + + + + + + + + + + 3 , + + + + + + 3 , + + + + + 3 + + + + + . , + + + + + + + + + 2 + + + @ @ + @ + + , 3 > ",
"+ . . . . . . . . . > . . . . , + . . . . . . . . . . . . . > > > / . . . . . . . . . > . . . > . . . . . . . . . > > . . . . . + . . . . . . . . . . . / . . . / . / > >     > > / > / > . . / . 5 > 4 . > . / / . . . . . . . 4 . > . . . . . . . . . . / > . ",
"@ @ # # # @ @ @ # # @ @ # # # # # $ @ # # # # # @ # @ @ + , , . + @ @ # [ # # # # # # # # # # @ @ @ @ # # # # # # # # @ # # @ # $ # # # # @ @ # # # # @ # $ $ # @ # # # # # # # @ @ @ @ + 3 . + 3 @ @ @ @ @ @ @ + @ @ # # # @ @ + @ # # # @ @ @ @ # @ @ @ # # @ ",
"% & * * % % & % % % % % % & % & % & & & & & % & & & % & % @ + . # # % * * * * = = * = = = * = = & & * * & & & % & % % & % ( $ % % % & % % % % $ % & & & % $ $ $ $ $ % % % % $ $ $ $ $ $ # + + / @ $ & * & & & & & % % & * & & & & & * = * * * * & & & & & * & % ",
"- ; - = - = - = * = = * * * * = = = = * * * * * * & & & & % + / @ & $ @ @ @ @ # # # # # # $ $ $ $ $ $ & & % & & & * = = = = * & & & & & & & & % % & % * % $ % % % % & % % % _ % $ $ $ $ # # . > @ % & $ $ % % $ $ $ $ $ & * * = * & & & & & * * * * & * * = * = ",
"$ % $ $ : $ [ $ $ $ _ % % & * * * * & * * * * - - = * * % $ @ . # * # # $ # # # # # # # @ @ # @ @ @ @ @ # # # # # # $ $ $ $ % % & * = * * * & % & * * & % % & % % % % % $ $ $ $ # $ $ # $ @ + . @ = # @ @ @ @ @ # # @ @ @ @ $ # # @ # @ # # @ $ $ $ $ # # @ # $ ",
"# # # # # # @ # # # # $ $ # $ # # $ $ $ # $ $ $ $ % $ $ & # + . # = # # $ $ @ # # # # # # # # # @ @ # @ @ @ # # # # # # # # $ $ # # # $ % & & % $ $ $ $ $ $ $ # $ $ # $ # @ # # # # # @ @ + 3 > @ * # # @ @ @ @ @ # @ @ @ # # @ # # @ # # # # # # # # # @ @ $ # ",
"# @ @ # # $ [ # # $ # $ % $ $ $ $ % $ $ # # $ # $ # # $ & # + . $ * $ # # # # # # # # # # # @ @ @ @ # @ @ @ # @ @ # $ # # # # $ # # $ # # # % $ $ $ # # @ @ @ @ @ @ # # # @ @ # # # # [ # + + . @ & @ @ # @ # # @ @ @ @ @ # # # # # @ @ @ @ @ @ # @ # $ # # # # ",
"# @ # $ # # $ # # @ # # # $ $ < # $ # # $ $ $ $ $ $ $ % % @ + . @ * # # # # @ @ # @ @ @ # # # @ @ @ @ @ @ @ # # @ @ # # $ # [ # $ $ # # # $ $ % $ $ # @ @ # @ @ @ @ @ # @ @ @ # # # # # # + + . # = @ + @ @ @ @ # # @ @ @ # # # # # @ @ @ @ # # # # # @ $ # # $ ",
"# # @ # $ # # # # $ # # # $ # $ $ $ # @ # # $ # # $ $ # $ @ + . # & @ @ # # # # # @ @ @ @ @ # @ @ @ # $ # @ # # # # @ $ $ $ # $ $ $ [ $ # # $ $ % # # $ # $ # $ # @ # # # # @ @ # # # @ # @ 2 > @ = # @ + @ # @ # # @ @ # # # # # @ @ @ # # # # # @ # # $ $ # # ",
"# # # # $ $ # $ [ $ # # # # # $ # # @ # @ # # # # % # # $ @ + . # * # # # # @ @ @ @ # # # # # # @ @ [ $ $ $ # # $ # $ % % $ # # $ $ $ $ # # # $ $ $ $ $ < # [ $ $ # # # $ $ $ # # # # # $ @ @ . @ * @ @ # @ + @ @ @ @ @ # $ # # # @ @ @ # # # @ @ @ # # # # # # ",
"@ # # # $ $ $ : $ # # # @ # $ $ $ # # # # # # # $ # # @ $ @ + . # * $ @ # # # @ @ $ $ $ # # $ $ # # $ $ # $ $ $ $ $ $ # $ # # @ # @ # # # $ # $ $ & % # # [ % # # # $ $ $ # # $ $ # $ # $ @ 1 . @ * @ @ @ # @ @ @ # @ # # # # @ @ # @ @ # [ # @ @ # # [ # # # # ",
"# # # # # $ $ % $ # $ @ # # $ $ % $ $ $ # # # $ # @ @ @ $ @ + > # * % # $ # $ [ # $ # $ # $ $ # # # @ @ @ # [ # # # # $ $ @ # # # # $ # @ # # # # # & $ $ % # # $ $ $ $ # $ $ $ [ @ # # # @ @ . @ * @ @ @ @ # @ @ @ # @ # # @ @ # # # # # # # @ # $ # # # $ [ # ",
"# # # # # # # $ $ $ # # # @ # $ $ $ @ # $ $ % $ # @ # $ $ + + . # & % @ @ # # $ # @ @ # # # $ # # # # @ @ @ @ # # @ @ $ $ @ # # @ @ $ $ # @ $ # # $ # $ $ # # # $ $ $ $ $ $ $ @ @ # # @ # @ + . @ * @ @ @ @ # # # @ # # @ @ @ @ # @ # @ @ # $ @ # # # # @ # # # ",
"@ @ # $ # @ # # $ $ @ # $ # # $ $ $ $ _ % & % $ $ $ $ @ $ + + . # % & # # @ # # @ @ @ # $ # # $ # # $ $ # # # # # @ # $ $ # @ # # # # # $ # @ $ $ $ $ % % $ # # @ # # [ # # @ @ # $ # # $ $ + . | * @ @ @ @ @ @ @ @ @ @ @ @ @ @ # # @ # # $ # # @ # $ # @ # @ @ ",
"@ # # # # # @ # $ $ $ # # $ $ # $ % % % & $ $ $ # $ # # $ @ 2 . # % * # @ # $ @ @ [ # $ $ # @ # # [ # # # # @ # $ # $ $ $ $ # # # $ # $ # $ # # [ @ # $ % & $ $ # $ $ # # # $ $ $ $ $ # $ # + . @ & @ @ @ # @ @ @ # @ @ @ @ @ # $ $ # $ # # # # # @ # # # # @ # ",
"# # # # @ # # # $ # # $ $ # $ $ $ $ % & % $ % $ # @ # $ % # + . # % = # # # $ @ @ # $ [ % # @ # # $ # # # # # $ # $ # $ # # $ # # # # $ $ # # # # $ $ # $ ( ! % % % $ $ # $ $ $ $ $ # # $ # @ . @ * # # # @ @ # # # # @ @ # # $ $ # @ @ # # @ # # # # # # # # # ",
"$ # # $ $ # $ $ # # # # $ # $ $ $ $ % % % $ # @ # # @ # % # @ . # % * # @ # $ # @ @ # # # # $ @ $ # # [ $ # # : $ # # $ # # # # # # # # $ $ # $ $ $ # # $ $ % % % % $ $ $ $ $ $ $ $ $ # $ @ @ . @ = @ @ # # @ # # # @ @ @ # # # # @ # @ # # [ # $ $ # $ $ $ $ # ",
"# # @ # $ # $ : $ # $ # $ $ $ $ & % $ $ % $ @ # # $ @ @ $ @ + . # % % $ @ # # # # $ # $ # # $ $ # $ $ $ # # # # # # $ % $ $ # # $ # # # # # # $ $ $ $ $ $ $ $ $ ! % & $ # @ $ $ [ # # # # @ + + @ * @ @ @ + # # @ + + # # $ @ # $ $ $ # # $ # # # # $ @ # # # # ",
"# # # [ # # $ # # $ $ $ $ $ $ % % $ $ $ $ $ # # @ @ # @ $ # @ . # % & & $ $ # # $ # # $ # # # % $ # $ % # # $ # @ $ # # # $ $ # $ $ $ $ $ # # # $ # $ % % % $ $ $ $ $ $ $ # # # # # # # # @ @ . @ * # @ @ @ @ # # # [ # $ $ # # # $ $ % # # # # # # # # @ # # @ ",
"# # # # # $ $ @ # # $ $ % % $ # $ $ @ @ # # @ # # # # @ # @ + . # % & * % $ # @ # # # @ # @ # # $ $ # $ $ $ $ # $ $ # # $ # $ < $ # ~ $ # # @ $ # # $ $ % $ $ # @ # % % $ % $ # @ @ # # # @ + . # * % # # # # # # # $ # # $ # $ # @ # $ # $ [ # # # @ # # [ # # ",
"# # $ # # $ $ $ @ # $ % $ $ $ # # # # @ @ # @ # @ # # @ @ + @ . $ % % & & % $ # # # $ # # @ # $ $ $ % @ @ # # # $ $ $ $ $ % $ $ # $ $ $ # $ % $ $ # $ $ $ : $ $ $ # $ $ % $ % $ @ @ @ # $ @ + . @ & % # # # # # # # $ # # $ # $ % $ # # # $ $ $ $ $ # # @ # # $ ",
"# [ $ $ # $ % : % ( % $ $ $ $ $ # # # # # { @ @ # @ + # # @ + . # % & & % $ $ $ $ _ $ % $ [ # # $ ! $ % # # [ $ $ # # $ # # $ % $ $ # # $ $ $ $ # % % @ # # # [ $ # # # # # $ $ $ @ @ @ @ + + . # & & # # # $ @ # [ $ # @ # # $ % $ % $ $ $ % $ $ % $ $ # # # $ ",
"# # # # # # # $ % % $ $ # $ $ $ # @ # @ @ @ @ @ | + @ @ # @ + . $ % % & $ # # # # $ $ $ $ $ $ : % % % : % # $ % % $ $ # # [ @ # $ % % % $ # # $ $ % $ # # # # # # @ @ [ @ @ @ $ $ # # @ # @ + . # % * # @ @ # # # $ $ $ # # # $ $ $ # # # $ $ $ $ $ $ $ $ # # # ",
"$ $ $ $ % $ $ # @ @ # # # $ $ # $ @ # # @ @ @ { + # @ @ @ + + . # % % % $ @ # $ # # # # # # @ @ @ # $ $ % % $ # $ $ $ % % % % $ $ $ # # # $ $ # $ $ # $ # # $ @ @ @ @ # @ @ # # # # # # @ + . > @ % * $ # # # # $ $ # # # $ # # $ $ $ $ # @ # $ # # $ % # $ % $ ",
"% $ @ # # # # @ # @ @ # # # @ @ # # @ $ # # # @ @ @ # @ # + 3 > # % % % # @ # # @ [ # # # # # @ # # # # $ $ $ % $ $ % % & & % _ % % % $ # # $ & $ @ # # $ $ @ @ # # @ @ @ @ $ $ # # # # @ + 2 / @ % & $ @ # # # @ # # $ @ $ # # $ $ $ $ % $ $ % % % & ( & $ $ $ ",
"# $ # @ @ # # @ @ @ @ @ @ @ @ + @ # # @ @ @ @ # # | @ @ @ + + / # $ $ $ # @ # # @ # # # @ # # # # # # @ # # $ # # # # # @ # $ % % & % & ( $ & % % $ # # # # # $ $ $ @ # # # # # @ @ # @ @ @ + > @ % % & # # # # # # $ $ $ $ ! $ $ % $ $ $ $ # $ $ $ # # $ $ # # ",
"# # # $ @ + + + @ @ + + @ @ @ + + + @ @ + + @ @ @ # @ @ @ + , > @ % $ $ # @ # @ @ # @ @ @ @ # # @ # # # # # [ # $ $ # $ $ $ $ # # $ % $ % $ $ & $ $ # # $ # # # # # # # # # # # @ @ # @ # @ + . + $ % % % $ $ $ # @ # # # @ # # @ # $ # # @ # # # $ $ $ [ $ # # ",
"# # # # # # # # @ # [ # @ @ @ @ # # @ @ # @ | @ @ @ @ @ @ + + / # $ $ $ # @ # @ + + @ # @ @ @ # @ @ @ # $ [ # @ @ # # $ # $ # # # # $ $ $ $ # $ # # # # $ # # @ # # # @ @ # [ $ # $ # @ # @ + . @ $ % $ # @ @ @ @ @ @ @ # # $ [ @ # # # # [ @ # # $ $ $ # # [ # ",
"@ # # @ @ # # # # @ # @ + + @ @ @ @ | @ @ @ @ @ @ + @ @ @ + + . # # # $ # + # @ @ @ @ @ @ @ 1 @ @ @ @ @ # # # # @ # # # # $ $ $ $ # # # # $ $ $ $ # $ # @ # # @ # @ @ @ # @ @ @ # @ @ @ # @ + . @ $ $ $ # @ @ @ @ @ @ @ @ @ # $ # @ # $ # @ # # @ $ $ @ # @ @ # ",
"# # # # # @ @ # # @ # # # # @ @ @ @ @ @ @ # @ @ @ # @ + @ + .   @ @ $ % @ + @ @ @ # @ # @ @ @ # # # @ @ @ # # $ $ # # $ $ % % $ # $ $ # $ % $ $ $ % $ % $ $ $ # # # $ # @ $ [ # # @ # @ @ + . / + # # % # # @ # @ @ @ @ @ # # # # @ # $ $ # # $ $ # $ $ @ @ # $ ",
"# @ @ @ @ @ + + + + + | @ @ + + + + + + @ + + + + + + + @ @ . > . + $ @ @ + @ + + @ + + + @ + + @ @ @ @ @ @ @ 1 @ @ @ @ @ @ # # # @ # @ + # # @ @ # @ @ # @ # # @ @ @ @ @ @ @ @ @ | { + . + /   + + $ @ @ @ + | @ @ @ + + @ # # @ + + { @ + ] @ @ + @ @ @ @ @ @ ",
"@ @ + + + + . + + ] + + , + + 3 + + + + + + + + . + 2 . . > > . . + + + 3 + + + + + + + + + + + + + @ + + + + + + + + + + @ + + + @ @ @ + @ + + + + @ + + + + @ + + + + + + | @ + + + . . > / > . @ + + + + + + + + + + + + + | + + + + + + + + + + + + @ + | + ",
". . . . . . . . . . . . > . . > . . . . > / . > . . . > . . . . + . . . . . . . . > > . . / > . . / > / 4 . . . . . / > / > . . > / . . > . . . . . . . . . . ] , . . , . . . . . . . /   > > . + . . . . . . . . . . > . . > . . . / . . . . . . . . / / > . / ",
"+ @ # # @ # # # # # @ # # @ # @ # # # [ # + @ # # # # # $ # # # # # $ # # # # # # @ # # # @ @ @ @ # # # # # # # # # # @ + + + + @ @ # # # # $ # $ # $ $ # # # # # # # $ # # # # # # # # @ # # @ @ [ $ $ $ # # # @ @ # # # @ # $ # $ # @ # $ # # # $ # @ + + . + ",
"@ $ % $ % $ $ $ $ $ $ $ $ $ % $ $ $ % $ $ # $ $ $ % $ $ $ $ % # $ $ % $ $ $ % % $ % $ $ $ $ # % % $ $ $ $ % % $ % $ $ $ # + @ . # # % & % % % % % % % & % ( % % $ $ % % $ $ % $ % $ % $ $ % $ $ $ $ % % % & $ $ % $ $ $ $ # $ % $ % % $ % % $ $ $ % % # # + + . ",
"# $ * & % % % % % % $ % % % % % % % % % % % % $ % & % % $ $ $ % & % % % % % & % % & % & & & % % $ $ % % % % % & % % % % % % + . # & * & % & % % % & % & * * & & * & & % % & % % % % % $ % % % % % % % % & & & & & & $ % $ $ % % % % % % % % % % % % $ $ # $ + . ",
"# % % * & % & & & & % & % % % % % & % % % % & % % % % & & & % * * & % & % & % % % % & & % & * & & % % & & & & % % % % % * [ + . # $ % & % % & * % & & & & * & & & * & & & & & % % & ( & % % % % % & % % & % % & & & % & & % % & & & % * & % & & % % $ $ $ @ . / ",
"# % & * & % % % $ % $ % % $ $ $ $ $ $ $ $ $ $ $ $ # $ $ $ $ $ % % $ $ % % % $ : $ $ $ % % % $ % & % $ $ % $ % $ $ $ % % % # + > @ $ % % $ $ % $ % % $ % $ $ _ $ $ $ % $ # $ % % $ % $ $ $ $ $ $ $ % % % $ $ $ $ % $ % $ % $ $ % [ # $ $ % % $ $ $ $ $ $ # + 3 / ",
"# $ & * & $ $ $ $ $ # # $ # $ $ # $ # $ $ $ $ $ % $ $ $ $ $ % % $ # # $ % $ # # $ $ $ $ $ % % $ $ % # # $ $ $ $ $ $ : % % @ | . @ $ % % _ $ $ # $ # $ $ # # $ $ % % $ % % # $ $ $ $ # # $ $ $ $ % $ $ $ $ $ % $ $ $ # $ $ $ $ $ # $ $ $ $ # # # [ $ $ $ $ # + . ",
"$ & & * % $ $ # # # # # # [ # $ $ # $ $ $ $ $ % % $ $ % % $ $ $ $ $ $ $ $ % $ # # $ $ $ % % $ % $ $ % # $ $ $ % % $ $ $ % @ @ . # $ % & $ $ # # $ # # $ % $ # # $ $ $ $ % % $ $ $ $ # # $ $ $ # $ $ $ # [ $ % $ $ # $ $ $ $ # $ $ % % # $ # $ $ # $ $ $ $ # @ . ",
"# ( & * & $ $ $ # $ $ $ $ % $ $ % $ $ $ $ $ $ % % % $ ( $ $ % % # $ % % $ $ $ # $ $ $ % % % $ $ $ $ $ # $ $ # $ % % $ # % @ + . # % & & $ $ $ # $ # $ $ # $ $ % % $ $ $ $ % % $ $ $ $ $ $ # $ # # $ $ $ $ $ $ # # $ % [ $ $ $ $ $ # # % $ $ $ # # # @ # % # + . ",
"$ % * - * % % % $ $ $ $ $ % % $ % % $ $ % % % % $ $ % $ $ $ & & % % % $ $ % % $ $ % % % % $ $ $ $ % $ # $ : $ $ $ % % $ % [ + . # % & & $ $ $ # # # $ # [ $ $ $ % $ % % _ % % & ( % $ $ % $ $ $ % $ % % % $ $ % $ $ # $ % % $ # $ # $ $ $ $ $ $ # $ $ $ $ @ @ + ",
"$ & & = % $ $ % % % $ % % % & $ $ # $ $ $ $ % % $ $ & % % % % % % & & % & % & % % % % % % % % % & * % % % & % % % & % & & $ @ . # % % & % $ @ # @ @ @ @ # $ $ # $ $ & & % % % % & & & & % & & & ( % % & % % % $ $ % % & & $ $ $ $ # $ $ $ $ $ $ $ $ % % % $ # . ",
"$ % & * % $ $ $ $ % ( % % & ( % % % % % % % % % % & & % % & % $ % & % % $ $ % % % % $ $ $ $ $ $ $ % $ % $ $ $ $ $ < $ % & $ @ + $ & ( * & $ $ $ # # # $ $ $ $ # $ $ _ $ * * & $ $ $ $ % $ $ & % % & & & % $ % % & & * & % $ $ % # $ $ $ $ & $ & % $ $ $ $ @ @ . ",
"# & & = % $ $ $ $ $ % % & & & % $ $ $ $ $ $ $ [ $ $ $ # $ $ $ $ $ $ $ $ $ $ $ $ $ $ $ $ $ $ $ # $ $ $ # $ $ % % $ # # @ $ & @ + $ & * = % $ $ < $ # $ $ $ $ $ $ $ $ $ % & & % $ $ $ $ $ $ $ $ $ $ % % $ $ & & $ # $ % $ % & % $ $ % % & & ! $ $ $ $ # # # @ + . ",
"# & & * % % % ( & % % % % & % $ % : $ # $ $ $ $ $ % # $ $ $ % $ # $ % % $ $ $ # $ $ $ $ [ # $ $ $ $ $ # # # $ $ % % $ # # % + . # % & * $ $ $ # $ $ $ $ $ $ $ % % $ % $ $ $ # % & $ $ # # # @ # # $ # # % % $ $ $ $ $ # $ % % * * % $ % $ [ @ @ # # # @ # @ + . ",
"# % & * % $ % $ % % % % % & % % $ % $ $ $ $ $ $ $ # # $ % $ % $ # $ $ # $ # # $ $ $ # # $ # $ $ # $ # $ $ # # # $ $ $ $ @ % @ . $ & & = % # @ $ $ $ $ $ $ $ $ & % % % $ # [ & & % % & % % % % $ $ $ $ % $ % $ $ $ $ $ $ $ % % & $ $ % $ $ $ # @ @ + @ @ @ @ + . ",
"# % & & % % % % % % % % % $ % % % $ $ $ $ # # $ $ # # $ $ $ $ $ & $ # $ $ $ $ $ $ $ # $ : $ $ $ # # @ @ $ $ $ # # $ % $ # $ $ . $ % & = & $ $ # # $ $ % % % % % $ # # # $ % $ % $ $ $ $ $ _ $ % & & & $ # % $ $ $ $ $ $ $ % $ % % % % $ $ # # @ @ @ # # @ + + . ",
"@ % % % % $ $ % $ % $ $ & & $ % : % % % # # $ $ $ $ $ $ @ $ $ # $ $ $ $ $ # $ $ $ $ $ $ % % $ % $ # $ # [ # # # # # $ # # $ @ . # & * = & $ $ $ # $ $ $ $ % % $ # $ % % $ $ $ $ # # # # $ % $ % % # $ % # $ $ $ # # # $ # $ & $ # # $ $ # $ # # # @ @ @ # + . / ",
"@ % $ % # $ $ % < $ % $ $ & & $ $ % _ $ $ $ $ $ $ $ $ % $ % $ $ $ # # $ $ # # $ # $ $ $ $ $ [ $ $ # # # $ # # $ # # # @ # _ @ . # & * * % # # % # $ $ $ $ % $ % & $ # # $ # # $ $ # $ # [ $ # % % # $ % $ $ # $ $ # % % % % $ $ # # # # # # # # $ @ @ @ @ 1 + . ",
"# % % % $ # # $ % $ $ $ # $ % % % % $ $ % % $ $ % % $ $ $ $ $ $ [ # @ $ $ $ $ $ # # $ < # # $ $ $ # # $ # $ # # # # # @ # $ { . # % * * % $ $ % & # % * & $ % ( $ % $ $ # # $ $ # $ $ $ $ # # $ $ $ $ $ $ $ # # $ $ $ $ % % $ # $ # $ $ # # # # $ @ @ @ @ + + . ",
"# % $ & $ # $ $ $ $ @ # $ $ % % % % ( % % % $ $ % $ $ # $ % % $ # $ $ % $ # # # % $ $ % $ # # $ # $ $ $ # # # # # # # # # % @ . # & & * % $ % % % & $ $ % % % $ $ $ : $ % $ [ # $ $ $ $ $ # $ [ # $ $ # $ $ $ $ $ $ $ $ $ # # # $ # $ $ [ @ # @ # @ # # # @ + . ",
"# $ $ % # # # # # $ # $ $ $ $ $ % % & & % % $ # # # $ $ % $ $ $ $ $ $ $ # # $ $ # # # # $ $ $ # # # # # $ $ $ $ $ # # # # $ @ 3 # & & * % $ % $ % & % # % % % % % % # $ $ $ $ $ $ $ # $ $ # # $ $ # $ # $ $ # $ $ $ $ ( % # # $ # # @ @ # @ # # $ # @ @ @ @ + . ",
"# $ $ $ # # @ # @ @ # $ # $ $ # $ % $ % & % $ # # $ $ % % % % $ % % $ # $ $ $ $ # # # # # $ $ # # # # $ # $ $ # $ @ # # [ $ # . $ & * = * % $ & % $ $ ( % $ $ % : # [ $ : $ $ # $ $ $ # $ # # $ # # $ # # % $ $ $ $ $ % % $ $ @ @ @ @ @ @ @ @ @ # # @ @ @ @ + . ",
"# $ $ % # # @ # # @ # # $ $ # # $ % % % % $ $ * & % % % $ $ # $ $ % $ $ % $ $ $ # [ $ # # # # # # # # $ # @ # # # < # # $ % { 3 $ & * = & % % % $ $ $ $ % # $ $ $ [ # $ $ [ # # # $ $ [ $ # $ # # $ % $ # $ $ $ $ $ % $ $ $ # @ # @ # # @ @ @ @ [ # @ @ @ @ + . ",
"# $ $ $ # # # # # # $ # $ # # $ # $ $ $ $ $ % $ % $ & & & % % % % $ % & $ # $ $ $ $ $ # # # # # # $ # # # @ $ # $ $ # # # % @ . # & * = & & $ $ $ # $ # $ @ $ $ # # # # $ $ $ [ # $ # $ # # $ $ $ $ % $ $ # % $ $ : % $ # # # # # # # # @ @ @ @ # # # @ @ @ + . ",
"@ $ $ # # @ # # @ # @ @ # # # # @ # # @ $ % $ $ # % $ $ $ $ $ & % % & % $ [ $ # $ $ $ # # $ # $ # $ $ # # $ # # # # # $ $ % # . $ % * = & $ # $ $ # $ $ $ # $ # # # $ [ # @ # $ # $ $ $ # # # @ # % $ # $ % % # $ % # # # $ $ # $ $ @ # # # @ @ # @ @ @ # @ 3 > ",
"@ $ # $ # @ @ # @ @ # # $ $ # # # # @ $ $ # # # $ % # # # $ $ $ % % % % & % $ $ $ $ $ $ $ % $ $ $ $ $ # $ # # $ # $ # # # % # 3 # * * - % $ $ $ % $ # % $ $ $ $ $ # # $ $ $ [ # # # $ $ $ # # % $ % $ # # $ $ % % $ $ # # # # $ $ # @ @ # @ # # # # # # @ + . . ",
"# # @ $ # @ @ # # # # @ @ [ # @ | # % $ # # # # # # @ @ @ $ $ $ % % [ $ $ % % $ % % % $ % % _ $ $ $ [ $ $ $ $ # $ $ $ $ $ & @ . $ & = * % # # % % $ $ ! $ $ $ $ $ # # $ $ $ $ # @ # # $ $ # # $ % % # # % $ # $ & # $ [ # # $ # # $ $ # @ @ # # @ # # @ @ @ + > ",
"+ # # $ # # @ # @ # @ + + + + + @ $ # # # # # # # # @ # # # $ $ $ $ # @ # $ # $ $ % $ $ % % & % # # # $ $ $ # # $ $ $ # $ & @ . # & * & $ $ $ $ $ # $ @ # # $ $ $ # # $ $ $ $ # # # # # # $ $ # % $ # $ $ # % % % % $ # # # $ $ # $ # [ # # # # @ + + @ @ + + / ",
"+ # # $ $ @ + + @ + + + @ # $ $ % @ + @ # # # # # [ @ # @ @ # @ @ # # # # # # $ # $ # $ # $ $ % & & % $ # $ [ $ $ $ $ $ % % @ . # & * $ $ $ $ # $ $ $ # # $ $ $ $ $ # $ # # # # $ # # # # $ $ $ $ # $ $ $ $ $ % $ $ $ # $ $ $ # # $ # @ # # # # # @ # # @ + , > ",
"+ @ @ @ @ @ # @ @ # $ % $ $ # # # $ $ @ @ # # # $ # # # @ $ # # # $ $ $ $ $ $ % $ $ $ $ % # # $ $ $ % % & * & & & & & % & % | . + % * % $ $ $ # $ $ $ $ $ $ $ # $ # $ # # $ # # # # # $ # $ $ % $ $ % $ % & % % % $ % % % % $ $ : % % % $ # $ $ % # @ @ $ @ ,   ",
", . # # # $ # @ # # @ @ + + + @ @ @ @ # @ @ + @ @ @ @ # @ # @ @ + @ @ @ # @ # # @ # @ @ @ # @ # # @ @ # # # # $ $ _ $ $ $ % + > + @ % & % % & % % % % & % $ $ $ # # # $ $ $ $ # # $ $ $ $ % & & & % % % $ @ @ # @ @ @ # # # # @ # @ # # @ # @ @ @ @ + + @ @ . > ",
"+ . , + + @ + + + + { 2 + + . + . + + + @ 3 + + + 3 + + + + + + + + + + + @ + @ + @ + + + @ + + + + @ + + + | @ @ @ + + + , @ . + # | @ $ # @ @ @ # $ $ # $ $ $ $ $ # $ $ % $ $ $ # # # @ @ @ @ # 1 @ @ + + @ + + + @ + @ @ @ + + + + + + 2 + + + + @ @ + . . . ",
"+ . . > > > > . . . . . . . > > > > . . . . . . . . . . > > / > > . . . . . . . . . , . . . . . . . . . . . . . . . + + . . . + 1 . 3 3 + 2 . . . . . . . 2 . . . + + 2 , . . + . . . . . . > . . . . . / . . . 4 . . . . . . . . . . . 3 . . , . 3 . . . . > + ",
"@ @ @ # # @ @ @ @ @ # @ @ @ @ @ @ # # # @ @ # @ @ # @ @ + 2 , + + @ # # $ # # # # # # $ # # $ # $ $ # # # # # # # # # $ $ $ # $ $ [ $ $ $ $ $ # $ # $ # # # # $ $ $ $ $ $ $ $ $ $ $ # @ + + 3 + + @ $ @ # # @ # # @ @ # # # @ @ # # # # # # $ @ @ # # @ @ # @ @ ",
"% % % & % % $ % % % & % & % % % % % & & & & % % % % % % $ + + . # $ % % $ % % & % % % % % % % & & ( & & & * % % % % & % % ( % & & & & * * & & & & & & & & & & % * * & & & % & % % & $ $ # + + . @ $ % & % & & * % & % % & & % % % % & & & & & % & % % & & * & % ",
"= = = & * & & * * & & = * & & % & & * * = * & * & & % % $ % , . # % & = & = * * * * = * * * * * = = * * * = = = = = = * * * * * * * * * * = = * * * * * & & & & * * * * & & & % $ & $ % $ $ + . # & * & & & * * & & & & * % & * * & & & * = * % & & * = = - = = ",
"& & & & * * * - - * - - - * & * = * = = * & & * * & & & & $ + . @ % - & _ & % & & & & % % & & * * & * * & & & % % & % & & & & * * * * * * = = - = - - = = - = * * * & * * * % % * % $ % % @ + . # % & & & * * * & & & * = * * * * * = = = = - * = * & % % % % % ",
"$ $ # # % $ $ $ $ $ $ % % & % % & & & % % % $ $ % $ $ $ $ # @ . # % - $ $ # # # $ @ # $ # $ $ # $ $ $ % $ $ # $ $ $ $ $ $ $ $ $ $ $ $ % % $ % $ $ % & * * & & & % % % % & % $ % & $ $ # % # + . @ % % % % % $ $ $ % % $ & % % % & % % % & & & $ # $ $ $ $ # $ % ",
"$ $ $ $ $ $ # $ $ $ $ $ # # $ $ % $ $ $ $ $ # < # $ # # % # + . # % = $ # # @ # # @ @ # # # # $ # # $ $ $ $ # # $ # # $ # $ $ $ $ $ % $ : $ % % $ % % & % % % $ # # # # $ $ # $ $ $ $ # # @ @ . @ % % % # # # $ $ # % % % $ $ $ $ $ % % % % $ # # $ $ $ $ $ $ $ ",
"$ # $ $ # $ # # # $ $ $ $ $ $ : % $ $ $ # $ $ # # # # @ $ @ | . @ % = # @ # # @ @ @ @ # # # # # # # # # # $ $ # # # # $ # $ $ [ $ : $ % _ $ % % % % % & % % : $ [ # $ # # # $ $ # # [ # # @ @ . @ % % & $ # $ $ $ $ % $ $ $ # $ $ $ % % % & $ $ $ $ $ # $ % # $ ",
"$ % % $ $ $ $ $ $ # # # $ $ $ $ $ $ # @ @ # # # # # # # # @ + . # & = $ # # $ # @ @ @ # # # # # $ # @ # # # $ # $ # $ # $ $ $ $ % % $ % $ % % $ $ % % % % $ $ $ $ # # $ # @ @ % $ # # # # @ + . @ $ % & % $ # $ % % % $ $ % $ $ $ $ $ $ % & % % $ $ % $ # $ % # ",
"# $ $ $ $ # # $ @ $ $ # # # $ # @ # $ $ # # @ # # @ # # # @ + . # % * # # @ # $ # # # # # # # # $ $ # # # $ # $ $ $ # $ # $ $ # $ $ # % % % $ $ $ _ $ $ % % $ $ $ # # # # @ @ # # $ # @ [ @ @ . # $ % % $ $ # $ $ $ $ $ $ % $ # $ $ $ % $ & % % : # # # # $ $ $ ",
"$ $ # $ [ $ $ # # @ # # $ # $ $ $ @ @ @ # $ # # @ @ # @ $ @ + . # % & @ # # # # # # # # # # # $ # # $ $ # # $ $ # # # # $ # $ # # $ $ $ $ $ % % % $ $ $ $ $ % $ $ # # $ $ # @ # $ # # @ # # @ . # % $ % # # # $ $ $ # # # $ $ # # # $ $ % % $ # $ $ # @ # # # $ ",
"# $ $ $ $ % $ $ $ # [ $ $ # $ $ % $ $ @ # @ # $ # [ # [ % # | . @ & & @ # # $ # # # # $ # # # # $ # @ # # $ # $ $ # $ $ # $ $ $ $ $ # $ $ $ % % % % $ % % $ $ # $ # # # # # # # # # @ @ # # @ . @ $ % % # # # # # $ $ % $ $ [ $ $ $ $ % % % $ $ $ $ $ # # # # # ",
"# # # # $ $ $ $ $ # # % % $ % $ # $ % % $ $ $ # # # $ # % @ @ . $ * & @ @ # @ $ $ # # $ # # $ [ # # # $ # # $ $ # $ $ # # # $ $ % % # # < $ $ $ $ $ $ $ % % $ $ # # @ @ # # # # # # @ @ # @ + / # $ % % $ # # $ # $ # # $ # @ # # @ # % % $ $ $ $ $ % $ $ # # # ",
"# [ $ $ # $ $ $ $ $ % % $ % % $ $ $ $ $ $ $ # $ : $ # # $ # + . $ = & @ # # # # # # # $ $ # $ $ < # # $ $ # $ $ $ $ $ # $ $ $ # # $ $ $ $ % $ [ $ $ % % ( $ $ $ $ # # # $ [ # $ $ # # @ # # + / @ % $ & $ # # # @ # # $ # # # # $ $ # # % % $ % $ : % % $ : $ # ",
"$ $ $ $ $ $ $ % # # $ $ $ ( $ $ % % $ $ $ : # # $ % $ # % # + . $ * & # # # # $ # $ $ $ $ # [ $ # $ $ @ # $ # $ $ $ $ $ $ $ $ # # $ $ $ $ $ $ % % % % $ & % $ % $ $ # # < $ # [ # $ @ @ @ # @ . @ % % % $ $ # $ $ # # $ $ $ # % $ % $ % & & : $ _ % % $ % $ : $ ",
"% % $ $ $ % $ % $ $ % % % % : $ $ % $ $ $ @ # # $ $ # $ $ # 1 . # & * $ # # [ # $ $ $ # # # # $ $ $ $ $ # % $ @ # # # $ $ % $ $ $ $ $ % $ $ $ $ $ $ $ $ % & % $ $ $ $ $ # # [ # # # $ # $ @ @ . # % % % $ # # # $ $ $ $ $ # % % $ % & ( $ % ! $ $ $ $ _ $ $ $ $ ",
"$ [ $ _ # # # $ $ % % % $ % ! % % & $ # # $ # # # # # # % # @ . $ & * $ # # $ [ @ # [ $ $ $ # $ $ $ # $ $ $ $ $ # $ $ $ % % $ [ $ $ $ $ $ $ $ $ $ $ % % $ % % % % $ $ $ [ # [ $ $ # # # $ @ @ . @ % % $ # # # # # # $ % # # % % % % % $ % % $ $ % % $ % % $ $ $ ",
"$ $ $ % % # $ % $ & $ $ $ $ $ $ % % % ! $ $ $ $ $ $ # @ $ @ @ . # & = $ # # # # # $ $ $ $ < # $ $ $ $ $ $ $ % $ $ $ $ $ $ $ $ $ $ $ $ $ % $ $ $ % $ % % % $ % $ $ $ # $ % $ @ # # # @ # # @ + . @ % % & $ # @ # $ $ $ $ # # $ % % % % % % $ $ _ % $ % $ $ # $ $ ",
"$ $ $ $ % : $ $ % % $ $ % % % % % % % % % & # $ [ $ $ # $ @ + . # & - % $ # @ # $ # $ % $ $ $ # $ $ $ $ $ $ % $ [ $ $ # $ % % $ $ $ % % % % $ $ _ % % $ % & $ % % $ % % $ $ # # # # $ # $ @ + . # & % & % $ # $ $ $ [ # $ $ $ % & $ % % % $ $ % $ $ $ $ $ $ % % ",
"$ $ $ # $ $ $ % % $ $ $ % % $ $ $ & & & & & $ $ $ $ $ $ % @ @ . # % - % # $ # @ $ $ $ $ $ $ $ $ $ # # # # # $ $ $ $ % $ $ $ % % _ $ $ $ $ $ $ % % % $ $ % & $ % ( % % % % $ @ # # $ [ # # @ + . @ % * & % $ $ # # # $ # # % % & % % % & $ # $ # $ $ $ : $ $ $ $ ",
"$ $ $ $ $ % % % $ : % $ & % % % % & & & % % $ _ $ $ $ # $ @ + . # & * ( $ $ $ # # $ $ $ $ $ $ % $ # @ # $ : $ $ $ $ % % % % % % % $ $ $ $ $ $ $ % % & % % & & & % $ % $ $ $ # # # # @ @ # + @ . # & & & $ $ $ # $ $ $ $ < $ % % % $ $ & % % $ % $ % $ % % $ # # ",
"$ $ $ $ % % $ # $ & & & & % % & % % % % : % & % % % $ $ % @ @ . $ & & * $ $ $ $ $ # # # # # $ $ $ $ $ $ $ $ $ $ _ % $ $ $ % % % $ $ % $ % $ $ $ ! % & % & & * & % & % : $ $ $ # # # @ + # @ { . # & & & $ $ # # $ $ # @ # # # % $ $ % & & % $ % $ $ # $ # $ % $ ",
"$ # $ % $ $ $ ( % * * * & $ ! % $ $ % _ % & % $ % $ $ # & # + . $ % % & % % % % $ $ $ $ ( $ $ $ % $ $ % $ # $ # $ $ % : $ $ $ & & % % % % $ $ & % & & & % $ & * * & $ % $ $ $ # # # # # # @ + . @ % $ % $ # $ # # # # # # # # % $ % $ $ & % % $ $ $ % $ % % % % ",
"& & & & % & & & $ _ $ $ $ % # $ # # $ % $ % % % $ $ % $ % # + . # % % & % $ $ $ $ $ $ % $ $ $ $ % % _ & % % % $ $ % ( % % % & & & % % % % & % % % % % % $ $ $ $ % % % % & $ $ $ # # # [ # @ + . @ $ % % $ $ $ $ # # # # $ < $ $ $ $ % $ % * & % % % % % $ & % % ",
"& ( $ % % # : % % $ $ % $ $ $ $ $ # # $ $ $ $ $ # # $ $ & # + 3 # % % % # # # @ # # @ # # @ # # $ # $ $ $ @ # # # # $ $ $ $ % % % % % % : ! % $ $ $ $ % $ # # $ # # $ $ % * & % $ @ # # # @ + . # % % % # # # $ # $ # # # $ $ $ [ $ $ % & $ % % ! % % % % % % & ",
"$ % % % % $ # # $ # $ $ $ $ $ $ $ $ # # $ [ # < $ $ # # # # @ . # $ % % $ # @ # + @ @ # # $ $ # # # # % $ # # $ # @ # # # $ $ % % % % $ $ $ $ $ $ $ $ # # + @ @ # $ # $ < $ $ % % $ $ @ # @ + . @ $ % % $ $ # # # $ # # @ # $ $ $ $ % $ $ [ $ $ @ # $ $ $ $ $ $ ",
"# # [ $ $ $ $ @ # # < $ < $ $ $ $ $ $ @ @ $ # $ # # # # $ # @ . # $ $ $ # # # # # @ @ # # # # # @ # # $ $ # # # # # # # # # # $ $ $ $ % $ < @ $ : $ $ # # # # # # # # # @ # # # # # $ $ $ # + . @ $ $ % $ @ $ # $ # # # $ % % $ % $ $ # $ $ # $ # $ # # # $ $ # ",
"$ $ # # # # $ $ # # # # # # # # $ $ $ # $ # # # # # [ # $ @ + . $ $ # $ # # @ # # # # # # $ $ # + @ # # # # # @ @ # # # $ $ < # $ $ $ $ $ # # # # # # [ $ [ # # # @ # # @ @ @ $ # # # # $ @ @ . @ $ % % # # # # $ # # $ $ $ $ % $ # @ # # # # $ # # $ $ $ % $ $ ",
"$ # : $ + @ # # @ # # # @ @ # # # @ # # # # @ # # # # # # @ + . # $ # # @ # # @ # @ # @ @ @ # # $ + # # # $ $ # # $ # # $ # $ $ $ $ $ $ $ # # @ # # # # $ # @ # $ # @ @ # @ @ # # $ $ # # + + > + $ $ $ # @ @ @ # @ $ $ $ % $ @ # @ @ # # # # # @ # $ $ $ $ $ $ ",
"$ # @ % % # # [ @ $ $ $ @ # @ @ @ @ $ # # # $ # # # # $ # @ + > @ # # $ $ # # # # @ # # @ # # + $ $ @ # # $ # $ $ $ $ # # # $ $ $ % % $ # # $ # # # # # # # $ # # $ $ # [ # # @ @ @ # # $ @ + > , # # $ $ $ $ $ $ $ $ % % $ $ # @ @ $ $ # # $ $ # $ # $ $ $ $ $ ",
"# @ @ @ # $ + + { + @ @ @ # @ # @ @ @ # @ @ @ # @ @ { @ @ # .   + + $ @ @ @ { @ { @ @ @ + + @ { | # @ + @ @ @ # # @ @ @ @ @ @ @ @ @ # @ @ @ # @ { @ @ + @ @ @ # + + @ # # @ @ + + + + @ + @ 3   . + # @ @ # @ @ @ # @ # # @ @ @ @ + + + + 2 @ @ + # # @ @ # @ # ",
"@ | + + + @ @ + , . + + + + + ^ + , + + @ + + @ @ + + @ + . . 5 . + + + + + + + 2 + + + + + , + + + @ @ . , + + + + + + @ + @ + + @ @ @ @ + @ @ + + + + + + @ @ @ + 3 + @ @ + + + + . + , . . / . + + + + + + @ @ + + + @ @ + + + + + @ + + + @ @ + + + + + + + ",
". > . . . . . , . . . . . . . . . . . . > . . . + . . . . . > . + . . . . . . > / . > . . . / . . . . . . . . . . . . . . > . . / . . . . ' . . . . . / 3 . . . . . . > . . . . . . . . . . . . + . . . . . . , 3 . . . . 3 . > . . . . / > . . 3 . . . . . > > "};
